resources/images/na miejscu.svg

<svg width="62" height="62" viewBox="0 0 62 62" fill="none" xmlns="http://www.w3.org/2000/svg">
<g id="na miejscu">
<path id="Vector" d="M31 2.12646H38.0064L35.5017 4.35021L38.0064 6.57395H31" stroke="#1F294C" stroke-width="2" stroke-miterlimit="10" stroke-linecap="round" stroke-linejoin="round"/>
<path id="Vector_2" d="M31 1V9.24113" stroke="#1F294C" stroke-width="2" stroke-miterlimit="10" stroke-linecap="round" stroke-linejoin="round"/>
<path id="Vector_3" d="M11.1901 57.4556H60.9983V61H1V57.4556H6.96483" stroke="#1F294C" stroke-width="2" stroke-miterlimit="10" stroke-linecap="round" stroke-linejoin="round"/>
<path id="Vector_4" d="M3.89844 57.4558V38.3813" stroke="#1F294C" stroke-width="2" stroke-miterlimit="10" stroke-linecap="round" stroke-linejoin="round"/>
<path id="Vector_5" d="M58.1016 38.3516V57.4556" stroke="#1F294C" stroke-width="2" stroke-miterlimit="10" stroke-linecap="round" stroke-linejoin="round"/>
<path id="Vector_6" d="M4.625 32.8945L6.43582 27.6709H13.5363" stroke="#1F294C" stroke-width="2" stroke-miterlimit="10" stroke-linecap="round" stroke-linejoin="round"/>
<path id="Vector_7" d="M48.4062 27.6709H55.5706L57.3814 32.8945" stroke="#1F294C" stroke-width="2" stroke-miterlimit="10" stroke-linecap="round" stroke-linejoin="round"/>
<path id="Vector_8" d="M13.533 38.1186H1L2.81082 32.895H13.533" stroke="#1F294C" stroke-width="2" stroke-miterlimit="10" stroke-linecap="round" stroke-linejoin="round"/>
<path id="Vector_9" d="M48.4062 32.895H59.1923L61.0031 38.1186H48.4062" stroke="#1F294C" stroke-width="2" stroke-miterlimit="10" stroke-linecap="round" stroke-linejoin="round"/>
<path id="Vector_10" d="M48.3047 45.0443V21.4395" stroke="#1F294C" stroke-width="2" stroke-miterlimit="10" stroke-linecap="round" stroke-linejoin="round"/>
<path id="Vector_11" d="M48.3047 57.4556V49.27" stroke="#1F294C" stroke-width="2" stroke-miterlimit="10" stroke-linecap="round" stroke-linejoin="round"/>
<path id="Vector_12" d="M13.6953 21.2812V57.4555" stroke="#1F294C" stroke-width="2" stroke-miterlimit="10" stroke-linecap="round" stroke-linejoin="round"/>
<path id="Vector_13" d="M45.139 19.7603L51.0431 22.1669V17.6171L30.9919 9.35107L21.1328 13.4154" stroke="#1F294C" stroke-width="2" stroke-miterlimit="10" stroke-linecap="round" stroke-linejoin="round"/>
<path id="Vector_14" d="M17.2313 15.0257L10.9453 17.6171V22.1669L30.9966 13.9937L41.2291 18.1647" stroke="#1F294C" stroke-width="2" stroke-miterlimit="10" stroke-linecap="round" stroke-linejoin="round"/>
<path id="Vector_15" d="M31.1056 29.054C33.7959 29.054 35.9768 26.8742 35.9768 24.1852C35.9768 21.4962 33.7959 19.3164 31.1056 19.3164C28.4153 19.3164 26.2344 21.4962 26.2344 24.1852C26.2344 26.8742 28.4153 29.054 31.1056 29.054Z" stroke="#1F294C" stroke-width="2" stroke-miterlimit="10" stroke-linecap="round" stroke-linejoin="round"/>
<path id="Vector_16" d="M31.1016 19.314V29.0568" stroke="#1F294C" stroke-width="2" stroke-miterlimit="10" stroke-linecap="round" stroke-linejoin="round"/>
<path id="Vector_17" d="M34.2675 57.4551V44.374H28.0469V57.4551" stroke="#1F294C" stroke-width="2" stroke-miterlimit="10" stroke-linecap="round" stroke-linejoin="round"/>
<path id="Vector_18" d="M23.7351 33.2275H18.9062V40.4792H23.7351V33.2275Z" stroke="#1F294C" stroke-width="2" stroke-miterlimit="10" stroke-linecap="round" stroke-linejoin="round"/>
<path id="Vector_19" d="M3.89844 51.6257H8.73525V44.374H3.89844" stroke="#1F294C" stroke-width="2" stroke-miterlimit="10" stroke-linecap="round" stroke-linejoin="round"/>
<path id="Vector_20" d="M58.1024 51.6257H53.2656V44.374H58.1024" stroke="#1F294C" stroke-width="2" stroke-miterlimit="10" stroke-linecap="round" stroke-linejoin="round"/>
<path id="Vector_21" d="M43.0945 33.2275H38.2656V40.4792H43.0945V33.2275Z" stroke="#1F294C" stroke-width="2" stroke-miterlimit="10" stroke-linecap="round" stroke-linejoin="round"/>
<path id="Vector_22" d="M33.4148 33.2275H28.5859V40.4792H33.4148V33.2275Z" stroke="#1F294C" stroke-width="2" stroke-miterlimit="10" stroke-linecap="round" stroke-linejoin="round"/>
<path id="Vector_23" d="M23.7351 44.374H18.9062V51.6257H23.7351V44.374Z" stroke="#1F294C" stroke-width="2" stroke-miterlimit="10" stroke-linecap="round" stroke-linejoin="round"/>
<path id="Vector_24" d="M43.0945 44.374H38.2656V51.6257H43.0945V44.374Z" stroke="#1F294C" stroke-width="2" stroke-miterlimit="10" stroke-linecap="round" stroke-linejoin="round"/>
</g>
</svg>

<svg width="62" height="62" fill="none" xmlns="http://www.w3.org/2000/svg"><g stroke="#1F294C" stroke-width="2" stroke-miterlimit="10" stroke-linecap="round" stroke-linejoin="round"><path d="M31 2.126h7.006L35.502 4.35l2.504 2.224H31M31 1v8.241M11.19 57.456h49.808V61H1v-3.544h5.965M3.898 57.456V38.38M58.102 38.352v19.104M4.625 32.895l1.81-5.224h7.101M48.406 27.67h7.165l1.81 5.224"/><path d="M13.533 38.119H1l1.81-5.224h10.723M48.406 32.895h10.786l1.811 5.224H48.406M48.305 45.044V21.44M48.305 57.456V49.27M13.695 21.281v36.175M45.139 19.76l5.904 2.407v-4.55L30.992 9.351l-9.86 4.064"/><path d="m17.231 15.026-6.286 2.591v4.55l20.052-8.173 10.232 4.17"/><path d="M31.106 29.054a4.87 4.87 0 1 0 0-9.738 4.87 4.87 0 1 0 0 9.738ZM31.102 19.314v9.743M34.267 57.455V44.374h-6.22v13.081M23.735 33.227h-4.829v7.252h4.83v-7.252ZM3.898 51.626h4.837v-7.252H3.898M58.102 51.626h-4.836v-7.252h4.836M43.094 33.227h-4.828v7.252h4.828v-7.252ZM33.415 33.227h-4.83v7.252h4.83v-7.252ZM23.735 44.374h-4.829v7.252h4.83v-7.252ZM43.094 44.374h-4.828v7.252h4.828v-7.252Z"/></g></svg>
